X:1
T:Le rose, fronde e fiori
T:Le rose, fronde e fiori
T:Luca Marenzio (1553-1599)
%%score [ 1 2 3 ]
L:1/8
M:2/2
K:F
V:1 treble nm="Soprano"
V:2 treble nm="Alto"
V:3 bass nm="Bass"
V:1
 z2 c2 c3 B | A2 A2 G4 | F2 f2 f3 _e | d2 d2 c4 | B4 d2 d d | c3 c B3 B | A2 G2 A4 | A2 c2 d4 |: %8
w: Le ro- se,|fron- de~e fio-|ri che mi por-|ge- ste,~o Clo-|ri, spi- ra- no,|cre- scon, man- dan|al mio co-|re o- dor,|
 c4 B4 | A2 (d2- dcBA | G2 F2 G4) |1 F2 c2 d4 :|2 F8 |] %13
w: ar- dir,|ar- do- * * * *||re. o- dor,|\-re.|
V:2
 A4 A3 G | F2 F2 E4 | F2 A2 d3 c | B2 B2 A4 | B4 B2 B B | A3 A G3 G | ^F2 G2 F4 | ^F2 A2 B4 |: %8
w: Le ro- se,|fron- de~e fio-|ri che mi por-|ge- ste,~o Clo-|ri, spi- ra- no,|cre- scon, man- dan|al mio co-|re o- dor,|
 A4 G4 | F2 (B2- BAGF | E2 F2 E4) |1 F2 A2 B4 :|2 F8 |] %13
w: ar- dir,|ar- do- * * * *||re. o- dor,|\-re.|
V:3
 F,4 F,3 _E, | D,2 F,2 C,4 | F,,2 F,2 B,,3 C, | D,2 B,,2 F,4 | B,,4 B,2 B, B, | F,3 F, G,3 G, | %6
w: Le ro- se,|fron- de~e fio-|ri che mi por-|ge- ste,~o Clo-|ri, spi- ra- no,|cre- scon, man- dan|
 D,2 _E,2 D,4 | D,2 F,2 (B,,C,D,=E, |: F,2) F,,2 (G,,A,,B,,C, | D,4) B,,4 | C,8 |1 %11
w: al mio co-|re o- dor, _ _ _|_ ar- dir, _ _ _|_ ar-|do-|
 F,,2 F,2 (B,,C,D,E,) :|2 F,,8 |] %13
w: re. o- dor, _ _ _|\-re.|

